src/assets/duotone/SidebarBottom.svg

<svg width="24" height="24" viewBox="0 0 24 24"  xmlns="http://www.w3.org/2000/svg">
<path opacity="0.4" d="M16.19 2H7.81C4.17 2 2 4.17 2 7.81V16.19C2 16.39 2.01 16.59 2.02 16.78C2.1 18.01 2.45 19.05 3.05 19.87C3.34 20.29 3.71 20.66 4.13 20.95C5.08 21.64 6.32 22 7.81 22H16.19C19.63 22 21.76 20.06 21.97 16.78C21.99 16.59 22 16.39 22 16.19V7.81C22 6.32 21.64 5.08 20.95 4.13C20.66 3.71 20.29 3.34 19.87 3.05C18.92 2.36 17.68 2 16.19 2Z" />
<path d="M22 15.2803H2V16.1903C2 16.3903 2.01 16.5903 2.02 16.7803H21.97C21.99 16.5903 22 16.3903 22 16.1903V15.2803Z" />
<path d="M8.68994 9.03039C8.68994 9.22039 8.75994 9.41039 8.90994 9.56039L11.4699 12.1204C11.7599 12.4104 12.2399 12.4104 12.5299 12.1204L15.0899 9.56039C15.3799 9.27039 15.3799 8.79039 15.0899 8.50039C14.7999 8.21039 14.3199 8.21039 14.0299 8.50039L11.9999 10.5204L9.96994 8.50039C9.67994 8.20039 9.19994 8.20039 8.90994 8.50039C8.75994 8.64039 8.68994 8.83039 8.68994 9.03039Z" />
</svg>

<?xml version="1.0" encoding="UTF-8"?>
<svg width="24" height="24" viewBox="0 0 24 24" xmlns="http://www.w3.org/2000/svg">
 <path d="m16.19 2h-8.38c-3.64 0-5.81 2.17-5.81 5.81v8.38c0 0.2 0.01 0.4 0.02 0.59 0.08 1.23 0.43 2.27 1.03 3.09 0.29 0.42 0.66 0.79 1.08 1.08 0.95 0.69 2.19 1.05 3.68 1.05h8.38c3.44 0 5.57-1.94 5.78-5.22 0.02-0.19 0.03-0.39 0.03-0.59v-8.38c0-1.49-0.36-2.73-1.05-3.68-0.29-0.42-0.66-0.79-1.08-1.08-0.95-0.69-2.19-1.05-3.68-1.05z" opacity=".4"/>
 <path d="m22 15.28h-20v0.91c0 0.2 0.01 0.4 0.02 0.59h19.95c0.02-0.19 0.03-0.39 0.03-0.59v-0.91z"/>
 <path d="m8.6899 9.0304c0 0.19 0.07 0.38 0.22 0.53l2.56 2.56c0.29 0.29 0.77 0.29 1.06 0l2.56-2.56c0.29-0.29 0.29-0.77 0-1.06s-0.77-0.29-1.06 0l-2.03 2.02-2.03-2.02c-0.29-0.3-0.77-0.3-1.06 0-0.15 0.14-0.22 0.33-0.22 0.53z"/>
</svg>
